flaticon/emoticons/angry-5.svg

<svg xmlns="http://www.w3.org/2000/svg" width="32" height="32" viewBox="0 0 24 24">
    <path d="M16.160156 10.578125C14.933594 10.578125 13.878906 11.300781 13.394531 12.34375 13.0625 12.007812 12.601562 11.796875 12.089844 11.796875 11.582031 11.796875 11.121094 12.007812 10.789062 12.34375 10.300781 11.300781 9.246094 10.578125 8.023438 10.578125 6.339844 10.578125 4.972656 11.945312 4.972656 13.628906 4.972656 15.308594 6.339844 16.679688 8.023438 16.679688 9.707031 16.679688 11.074219 15.308594 11.074219 13.628906 11.074219 13.066406 11.53125 12.609375 12.089844 12.609375 12.652344 12.609375 13.109375 13.066406 13.109375 13.628906 13.109375 15.308594 14.476562 16.679688 16.160156 16.679688 17.839844 16.679688 19.210938 15.308594 19.210938 13.628906 19.210938 11.945312 17.839844 10.578125 16.160156 10.578125zM8.023438 15.863281C6.789062 15.863281 5.785156 14.859375 5.785156 13.628906 5.785156 12.394531 6.789062 11.390625 8.023438 11.390625 9.257812 11.390625 10.261719 12.394531 10.261719 13.628906 10.261719 14.859375 9.257812 15.863281 8.023438 15.863281zM16.160156 15.863281C14.925781 15.863281 13.921875 14.859375 13.921875 13.628906 13.921875 12.394531 14.925781 11.390625 16.160156 11.390625 17.390625 11.390625 18.394531 12.394531 18.394531 13.628906 18.394531 14.859375 17.390625 15.863281 16.160156 15.863281zM9.851562 18.710938C9.628906 18.710938 9.445312 18.894531 9.445312 19.117188 9.445312 19.34375 9.628906 19.527344 9.851562 19.527344 12.730469 19.527344 14.734375 20.167969 14.734375 20.746094 14.734375 20.972656 14.917969 21.152344 15.140625 21.152344 15.367188 21.152344 15.546875 20.972656 15.546875 20.746094 15.546875 18.808594 10.804688 18.710938 9.851562 18.710938zM9.851562 18.710938"/>
    <path d="M8.042969 9.71875L10.484375 10.941406C10.542969 10.96875 10.605469 10.984375 10.667969 10.984375 10.816406 10.984375 10.960938 10.902344 11.03125 10.757812 11.132812 10.558594 11.050781 10.3125 10.847656 10.210938L8.410156 8.992188C8.207031 8.890625 7.964844 8.972656 7.863281 9.171875 7.761719 9.375 7.84375 9.617188 8.042969 9.71875zM13.515625 10.984375C13.574219 10.984375 13.636719 10.96875 13.695312 10.941406L16.136719 9.71875C16.339844 9.621094 16.417969 9.375 16.320312 9.175781 16.21875 8.972656 15.972656 8.894531 15.773438 8.992188L13.332031 10.210938C13.132812 10.3125 13.050781 10.558594 13.148438 10.757812 13.222656 10.902344 13.363281 10.984375 13.515625 10.984375zM9.039062 13.628906C9.039062 14.1875 8.585938 14.644531 8.023438 14.644531 7.460938 14.644531 7.007812 14.1875 7.007812 13.628906 7.007812 13.066406 7.460938 12.609375 8.023438 12.609375 8.585938 12.609375 9.039062 13.066406 9.039062 13.628906zM17.175781 13.628906C17.175781 14.1875 16.71875 14.644531 16.160156 14.644531 15.597656 14.644531 15.140625 14.1875 15.140625 13.628906 15.140625 13.066406 15.597656 12.609375 16.160156 12.609375 16.71875 12.609375 17.175781 13.066406 17.175781 13.628906zM17.175781 13.628906"/>
    <path d="M 12 0 C 6.054688 0 1.21875 4.835938 1.21875 10.78125 L 1.21875 15.246094 C 1.21875 15.25 1.21875 15.25 1.21875 15.25 C 1.21875 15.25 1.21875 15.253906 1.21875 15.253906 L 1.21875 20.746094 C 1.21875 21.867188 2.132812 22.78125 3.253906 22.78125 L 5.917969 22.78125 C 5.9375 22.789062 5.957031 22.796875 5.976562 22.804688 C 7.402344 23.476562 9.121094 23.878906 11.078125 23.976562 C 11.121094 23.976562 11.164062 23.980469 11.210938 23.980469 C 11.46875 23.992188 11.730469 24 12 24 C 12.269531 24 12.53125 23.992188 12.789062 23.980469 C 12.835938 23.980469 12.878906 23.976562 12.921875 23.976562 C 14.878906 23.878906 16.597656 23.476562 18.023438 22.804688 C 18.042969 22.796875 18.0625 22.789062 18.082031 22.777344 L 20.746094 22.777344 C 21.867188 22.777344 22.78125 21.867188 22.78125 20.746094 L 22.78125 10.78125 C 22.78125 4.835938 17.945312 0 12 0 Z M 17.894531 21.964844 L 17.8125 22.007812 C 16.660156 22.566406 15.289062 22.929688 13.777344 23.089844 C 13.667969 23.101562 13.558594 23.113281 13.445312 23.125 C 13.285156 23.136719 13.125 23.148438 12.960938 23.15625 C 12.648438 23.175781 12.328125 23.1875 12 23.1875 C 11.671875 23.1875 11.351562 23.175781 11.039062 23.15625 C 10.875 23.148438 10.714844 23.136719 10.554688 23.121094 C 10.445312 23.113281 10.332031 23.101562 10.222656 23.089844 C 8.714844 22.929688 7.339844 22.566406 6.191406 22.007812 L 6.105469 21.964844 L 6.070312 21.964844 C 3.476562 20.65625 2.035156 18.34375 2.035156 15.253906 C 2.035156 15.253906 2.035156 15.25 2.035156 15.25 C 2.035156 15.25 2.035156 15.25 2.035156 15.246094 C 2.039062 10.019531 6.425781 5.550781 11.796875 5.289062 L 12.183594 5.289062 C 17.578125 5.550781 21.964844 10.023438 21.964844 15.253906 C 21.964844 18.34375 20.523438 20.65625 17.929688 21.964844 Z M 3.253906 21.964844 C 2.582031 21.964844 2.035156 21.417969 2.035156 20.746094 L 2.035156 19.027344 C 2.597656 20.195312 3.441406 21.1875 4.535156 21.964844 Z M 21.964844 20.746094 C 21.964844 21.417969 21.417969 21.964844 20.746094 21.964844 L 19.464844 21.964844 C 20.558594 21.1875 21.402344 20.195312 21.964844 19.027344 Z M 12.203125 4.472656 L 11.777344 4.476562 C 7.390625 4.691406 3.625 7.492188 2.035156 11.28125 L 2.035156 10.78125 C 2.035156 5.285156 6.503906 0.8125 12 0.8125 C 17.496094 0.8125 21.964844 5.285156 21.964844 10.78125 L 21.964844 11.265625 C 20.371094 7.484375 16.601562 4.6875 12.203125 4.472656 Z M 12.203125 4.472656"/>
</svg>

<svg xmlns="http://www.w3.org/2000/svg" width="32" height="32" viewBox="0 0 24 24">
    <path d="M16.16 10.578a3.046 3.046 0 0 0-2.765 1.766 1.827 1.827 0 0 0-2.605 0 3.055 3.055 0 0 0-2.767-1.766 3.052 3.052 0 0 0-3.05 3.05c0 1.68 1.367 3.052 3.05 3.052a3.055 3.055 0 0 0 3.051-3.051c0-.563.457-1.02 1.016-1.02.562 0 1.02.457 1.02 1.02 0 1.68 1.367 3.05 3.05 3.05 1.68 0 3.05-1.37 3.05-3.05a3.055 3.055 0 0 0-3.05-3.05zm-8.137 5.285a2.24 2.24 0 0 1-2.238-2.234 2.24 2.24 0 0 1 2.238-2.238 2.24 2.24 0 0 1 2.239 2.238 2.24 2.24 0 0 1-2.239 2.234zm8.137 0a2.24 2.24 0 0 1-2.238-2.234 2.24 2.24 0 0 1 2.238-2.238 2.24 2.24 0 0 1 2.235 2.238 2.239 2.239 0 0 1-2.235 2.234zm0 0M9.852 18.71a.408.408 0 0 0 0 .817c2.878 0 4.882.641 4.882 1.22a.406.406 0 1 0 .813 0c0-1.938-4.742-2.036-5.695-2.036zm0 0"/>
    <path d="M8.043 9.719l2.441 1.222a.403.403 0 0 0 .547-.184.407.407 0 0 0-.183-.546L8.41 8.992a.407.407 0 0 0-.367.727zm0 0M13.516 10.984a.433.433 0 0 0 .18-.043l2.44-1.222a.404.404 0 0 0 .184-.543.41.41 0 0 0-.547-.184l-2.441 1.219a.414.414 0 0 0-.184.547.409.409 0 0 0 .368.226zm0 0M9.04 13.629a1.016 1.016 0 0 1-2.032 0c0-.563.453-1.02 1.015-1.02.563 0 1.016.457 1.016 1.02zm0 0M17.176 13.629a1.019 1.019 0 0 1-2.035 0c0-.563.457-1.02 1.02-1.02a1.02 1.02 0 0 1 1.015 1.02zm0 0"/>
    <path d="M12 0C6.055 0 1.219 4.836 1.219 10.781v9.965c0 1.121.914 2.035 2.035 2.035h2.664l.059.024c1.425.672 3.144 1.074 5.101 1.172.043 0 .086.003.133.003.258.012.52.02.789.02.27 0 .531-.008.79-.02.046 0 .089-.003.132-.003 1.957-.098 3.676-.5 5.101-1.172.02-.008.04-.016.059-.028h2.664c1.121 0 2.035-.91 2.035-2.03V10.78C22.781 4.836 17.945 0 12 0zm5.895 21.965l-.082.043c-1.153.558-2.524.922-4.036 1.082l-.332.035c-.16.012-.32.023-.484.031a15.386 15.386 0 0 1-2.406-.035 9.536 9.536 0 0 1-.332-.031c-1.508-.16-2.883-.524-4.032-1.082l-.086-.043H6.07c-2.593-1.309-4.035-3.621-4.035-6.711v-.004-.004c.004-5.226 4.39-9.695 9.762-9.957h.387c5.394.262 9.78 4.734 9.78 9.965 0 3.09-1.44 5.402-4.034 6.71zm-14.641 0a1.22 1.22 0 0 1-1.219-1.219v-1.719a7.663 7.663 0 0 0 2.5 2.938zm18.71-1.219a1.22 1.22 0 0 1-1.218 1.219h-1.281a7.663 7.663 0 0 0 2.5-2.938zm-9.76-16.273l-.427.004c-4.386.214-8.152 3.015-9.742 6.804v-.5C2.035 5.285 6.504.812 12 .812c5.496 0 9.965 4.473 9.965 9.97v.484c-1.594-3.782-5.363-6.579-9.762-6.793zm0 0"/>
</svg>
